src/images/section-about-person-icon-1.svg

<svg fill="none" height="70" viewBox="0 0 85 70" width="85" xmlns="http://www.w3.org/2000/svg"><circle cx="50" cy="35" fill="#2f80ed" opacity=".1" r="35"/><g fill="#868686"><path d="m35 57h-2v-9.8c0-.5523-.4477-1-1-1s-1 .4477-1 1v9.8h-26v-20h8.32c.5523 0 1-.4477 1-1s-.4477-1-1-1h-9.32c-.55228 0-1 .4477-1 1v21h-2c-.552285 0-1 .4477-1 1v2c0 2.7614 2.23858 5 5 5h26c2.7614 0 5-2.2386 5-5v-2c0-.5523-.4477-1-1-1zm-1 3c0 1.6569-1.3431 3-3 3h-2v-1c0-.5523-.4477-1-1-1s-1 .4477-1 1v1h-18v-1c0-.5523-.44771-1-1-1-.55228 0-1 .4477-1 1v1h-2c-1.65685 0-3-1.3431-3-3v-1h32z"/><path d="m52 11h2c.5523 0 1-.4477 1-1 0-.55228-.4477-1-1-1h-2c-1.6569 0-3 1.3431-3 3v1h-1c-.5523 0-1 .4477-1 1s.4477 1 1 1h1v3c0 .5523.4477 1 1 1s1-.4477 1-1v-3h1c.5523 0 1-.4477 1-1s-.4477-1-1-1h-1v-1c0-.5523.4477-1 1-1z"/><path d="m57 5h-12c-1.6569 0-3 1.34315-3 3v2c0 .5523.4477 1 1 1s1-.4477 1-1v-2c0-.55228.4477-1 1-1h12c.5523 0 1 .44772 1 1v12c0 .5523-.4477 1-1 1h-12c-.5523 0-1-.4477-1-1v-6c0-.5523-.4477-1-1-1s-1 .4477-1 1v6c0 1.6569 1.3431 3 3 3h12c1.6569 0 3-1.3431 3-3v-12c0-1.65685-1.3431-3-3-3z"/><path d="m47 45c0 2.2091 1.7909 4 4 4s4-1.7909 4-4-1.7909-4-4-4-4 1.7909-4 4zm6 0c0 1.1046-.8954 2-2 2s-2-.8954-2-2 .8954-2 2-2 2 .8954 2 2z"/><path d="m57 36h-12c-1.6569 0-3 1.3431-3 3v12c0 1.6569 1.3431 3 3 3h12c1.6569 0 3-1.3431 3-3v-2c0-.5523-.4477-1-1-1s-1 .4477-1 1v2c0 .5523-.4477 1-1 1h-12c-.5523 0-1-.4477-1-1v-12c0-.5523.4477-1 1-1h12c.5523 0 1 .4477 1 1v6c0 .5523.4477 1 1 1s1-.4477 1-1v-6c0-1.6569-1.3431-3-3-3z"/><path d="m22.47 16.8499c.1591.0986.3428.1506.53.15.1565-.0009.3107-.0386.45-.11l6-3c.334-.1711.544-.5148.544-.89s-.21-.7189-.544-.89l-6-3c-.3095-.15596-.6777-.14054-.9731.04077s-.4758.50264-.4769.84923v6c-.0007.3455.177.6669.47.85zm1.53-5.23 2.76 1.38-2.76 1.38z"/><path d="m25 22c4.9706 0 9-4.0294 9-9 0-4.97056-4.0294-9-9-9s-9 4.02944-9 9c0 4.9706 4.0294 9 9 9zm0-16c3.866 0 7 3.13401 7 7 0 3.866-3.134 7-7 7s-7-3.134-7-7c0-3.86599 3.134-7 7-7z"/><path d="m35 26.0001c.3148 0 .6111-.1482.8-.4l3-4c.3314-.4419.2418-1.0687-.2-1.4-.4418-.3314-1.0686-.2419-1.4.2l-3 4c-.3314.4418-.2418 1.0686.2 1.4.1731.1298.3836.2.6.2z"/><path d="m37.2 29.6001c.1889.2518.4852.4.8.4.2164 0 .4269-.0702.6-.2l4-3c.4418-.3314.5314-.9582.2-1.4-.3314-.4419-.9582-.5314-1.4-.2l-4 3c-.4418.3313-.5314.9581-.2 1.4z"/><path d="m47 31.8001c-.048-.2679-.2031-.5046-.4296-.6556-.2264-.1509-.5046-.2031-.7704-.1444l-5 1c-.5523.0552-.9552.5477-.9 1.1s.5477.9552 1.1.9h.2l5-1c.2679-.048.5046-.2032.6556-.4296s.2031-.5046.1444-.7704z"/><path d="m1 32h12c.5523 0 1-.4477 1-1v-16c0-.5523-.4477-1-1-1h-12c-.552285 0-1 .4477-1 1v16c0 .5523.447715 1 1 1zm1-16h10v14h-10z"/><path d="m9 18h-2c-.55228 0-1 .4477-1 1s.44772 1 1 1h2c.55228 0 1-.4477 1-1s-.44772-1-1-1z"/><path d="m9 22h-4c-.55228 0-1 .4477-1 1s.44772 1 1 1h4c.55228 0 1-.4477 1-1s-.44772-1-1-1z"/><path d="m9 26h-4c-.55228 0-1 .4477-1 1s.44772 1 1 1h4c.55228 0 1-.4477 1-1s-.44772-1-1-1z"/><path d="m34.12 31.7c-.1786-.3108-.5095-.5027-.868-.5034-.3585-.0008-.6901.1898-.87.5-.1799.3101-.1806.6926-.002 1.0034l4.41 7.63-16 6s0 0-.07 0h-.08l-2.6 1.5-1.73 1c-.46.2659-1.0069.3379-1.52.2-.5104-.1379-.9454-.4723-1.21-.93l-2-3.46c-.4885-.9398-.1596-2.0974.75-2.64l3.46-2 2.5 4.33c.1793.3106.5113.5014.87.5.358.0014.6894-.1886.869-.4983.1796-.3096.18-.6917.001-1.0017l-2.58-4.46 12.55-10.35.41.71c.2761.4805.8895.6461 1.37.37s.6461-.8895.37-1.37l-1-1.73c-.1483-.2536-.4007-.4291-.69-.48-.2909-.0548-.5912.0221-.82.21l-14 11.54-4.26 2.46c-1.57223.9158-2.32834 2.7773-1.83999 4.53l-1 .57c-1.05374.6051-1.63839 1.7861-1.48066 2.991.15772 1.2048 1.02666 2.1955 2.20066 2.509.25448.0674.51673.101.77999.1.5261-.0022 1.0427-.1399 1.5-.4l1-.57c.4804.4962 1.0845.8553 1.75 1.04.3417.0956.6952.1427 1.05.14.7029.0016 1.3934-.1848 2-.54l.87-.5 2 3.47c.8275 1.4307 2.6564 1.9226 4.09 1.1.6899-.3975 1.1935-1.053 1.3998-1.822s.0985-1.5885-.2998-2.278l-1.82-3.17 15-5.63c.2753-.1035.4912-.323.59-.6.0985-.2737.0729-.5767-.07-.83zm-23.62 17.09c-.23.133-.50344.1689-.75999.1-.25621-.0666-.47557-.232-.61-.46-.13297-.23-.16895-.5034-.1-.76.06895-.2579.23818-.4776.47-.61l.86999-.5 1 1.73zm13.16 2.8c.133.23.1689.5034.1.76-.0713.2542-.2403.4699-.47.6-.4754.2731-1.082.1125-1.36-.36l-2-3.47 1.66-.95h.08z"/></g></svg>

<svg width="85" height="70" viewBox="0 0 85 70" fill="none" xmlns="http://www.w3.org/2000/svg">
<circle opacity="0.1" cx="50" cy="35" r="35" fill="#2F80ED"/>
<path d="M35 57H33V47.2C33 46.6477 32.5523 46.2 32 46.2C31.4477 46.2 31 46.6477 31 47.2V57H5V37H13.32C13.8723 37 14.32 36.5523 14.32 36C14.32 35.4477 13.8723 35 13.32 35H4C3.44772 35 3 35.4477 3 36V57H1C0.447715 57 0 57.4477 0 58V60C0 62.7614 2.23858 65 5 65H31C33.7614 65 36 62.7614 36 60V58C36 57.4477 35.5523 57 35 57ZM34 60C34 61.6569 32.6569 63 31 63H29V62C29 61.4477 28.5523 61 28 61C27.4477 61 27 61.4477 27 62V63H9V62C9 61.4477 8.55229 61 8 61C7.44772 61 7 61.4477 7 62V63H5C3.34315 63 2 61.6569 2 60V59H34V60Z" fill="#868686"/>
<path d="M52 11H54C54.5523 11 55 10.5523 55 10C55 9.44772 54.5523 9 54 9H52C50.3431 9 49 10.3431 49 12V13H48C47.4477 13 47 13.4477 47 14C47 14.5523 47.4477 15 48 15H49V18C49 18.5523 49.4477 19 50 19C50.5523 19 51 18.5523 51 18V15H52C52.5523 15 53 14.5523 53 14C53 13.4477 52.5523 13 52 13H51V12C51 11.4477 51.4477 11 52 11Z" fill="#868686"/>
<path d="M57 5H45C43.3431 5 42 6.34315 42 8V10C42 10.5523 42.4477 11 43 11C43.5523 11 44 10.5523 44 10V8C44 7.44772 44.4477 7 45 7H57C57.5523 7 58 7.44772 58 8V20C58 20.5523 57.5523 21 57 21H45C44.4477 21 44 20.5523 44 20V14C44 13.4477 43.5523 13 43 13C42.4477 13 42 13.4477 42 14V20C42 21.6569 43.3431 23 45 23H57C58.6569 23 60 21.6569 60 20V8C60 6.34315 58.6569 5 57 5Z" fill="#868686"/>
<path d="M47 45C47 47.2091 48.7909 49 51 49C53.2091 49 55 47.2091 55 45C55 42.7909 53.2091 41 51 41C48.7909 41 47 42.7909 47 45ZM53 45C53 46.1046 52.1046 47 51 47C49.8954 47 49 46.1046 49 45C49 43.8954 49.8954 43 51 43C52.1046 43 53 43.8954 53 45Z" fill="#868686"/>
<path d="M57 36H45C43.3431 36 42 37.3431 42 39V51C42 52.6569 43.3431 54 45 54H57C58.6569 54 60 52.6569 60 51V49C60 48.4477 59.5523 48 59 48C58.4477 48 58 48.4477 58 49V51C58 51.5523 57.5523 52 57 52H45C44.4477 52 44 51.5523 44 51V39C44 38.4477 44.4477 38 45 38H57C57.5523 38 58 38.4477 58 39V45C58 45.5523 58.4477 46 59 46C59.5523 46 60 45.5523 60 45V39C60 37.3431 58.6569 36 57 36Z" fill="#868686"/>
<path d="M22.47 16.8499C22.6291 16.9485 22.8128 17.0005 23 16.9999C23.1565 16.999 23.3107 16.9613 23.45 16.8899L29.45 13.8899C29.784 13.7188 29.994 13.3751 29.994 12.9999C29.994 12.6247 29.784 12.281 29.45 12.1099L23.45 9.1099C23.1405 8.95394 22.7723 8.96936 22.4769 9.15067C22.1815 9.33198 22.0011 9.65331 22 9.9999V15.9999C21.9993 16.3454 22.177 16.6668 22.47 16.8499ZM24 11.6199L26.76 12.9999L24 14.3799V11.6199Z" fill="#868686"/>
<path d="M25 22C29.9706 22 34 17.9706 34 13C34 8.02944 29.9706 4 25 4C20.0294 4 16 8.02944 16 13C16 17.9706 20.0294 22 25 22ZM25 6C28.866 6 32 9.13401 32 13C32 16.866 28.866 20 25 20C21.134 20 18 16.866 18 13C18 9.13401 21.134 6 25 6Z" fill="#868686"/>
<path d="M35 26.0001C35.3148 26.0001 35.6111 25.8519 35.8 25.6001L38.8 21.6001C39.1314 21.1582 39.0418 20.5314 38.6 20.2001C38.1582 19.8687 37.5314 19.9582 37.2 20.4001L34.2 24.4001C33.8686 24.8419 33.9582 25.4687 34.4 25.8001C34.5731 25.9299 34.7836 26.0001 35 26.0001Z" fill="#868686"/>
<path d="M37.2 29.6001C37.3889 29.8519 37.6852 30.0001 38 30.0001C38.2164 30.0001 38.4269 29.9299 38.6 29.8001L42.6 26.8001C43.0418 26.4687 43.1314 25.8419 42.8 25.4001C42.4686 24.9582 41.8418 24.8687 41.4 25.2001L37.4 28.2001C36.9582 28.5314 36.8686 29.1582 37.2 29.6001Z" fill="#868686"/>
<path d="M47 31.8001C46.952 31.5322 46.7969 31.2955 46.5704 31.1445C46.344 30.9936 46.0658 30.9414 45.8 31.0001L40.8 32.0001C40.2477 32.0553 39.8448 32.5478 39.9 33.1001C39.9552 33.6524 40.4477 34.0553 41 34.0001H41.2L46.2 33.0001C46.4679 32.9521 46.7046 32.7969 46.8556 32.5705C47.0066 32.3441 47.0587 32.0659 47 31.8001Z" fill="#868686"/>
<path d="M1 32H13C13.5523 32 14 31.5523 14 31V15C14 14.4477 13.5523 14 13 14H1C0.447715 14 0 14.4477 0 15V31C0 31.5523 0.447715 32 1 32ZM2 16H12V30H2V16Z" fill="#868686"/>
<path d="M9 18H7C6.44772 18 6 18.4477 6 19C6 19.5523 6.44772 20 7 20H9C9.55228 20 10 19.5523 10 19C10 18.4477 9.55228 18 9 18Z" fill="#868686"/>
<path d="M9 22H5C4.44772 22 4 22.4477 4 23C4 23.5523 4.44772 24 5 24H9C9.55228 24 10 23.5523 10 23C10 22.4477 9.55228 22 9 22Z" fill="#868686"/>
<path d="M9 26H5C4.44772 26 4 26.4477 4 27C4 27.5523 4.44772 28 5 28H9C9.55228 28 10 27.5523 10 27C10 26.4477 9.55228 26 9 26Z" fill="#868686"/>
<path d="M34.12 31.7C33.9414 31.3892 33.6105 31.1973 33.252 31.1966C32.8935 31.1958 32.5619 31.3864 32.382 31.6966C32.2021 32.0067 32.2014 32.3892 32.38 32.7L36.79 40.33L20.79 46.33C20.79 46.33 20.79 46.33 20.72 46.33H20.64L18.04 47.83L16.31 48.83C15.85 49.0959 15.3031 49.1679 14.79 49.03C14.2796 48.8921 13.8446 48.5577 13.58 48.1L11.58 44.64C11.0915 43.7002 11.4204 42.5426 12.33 42L15.79 40L18.29 44.33C18.4693 44.6406 18.8013 44.8314 19.16 44.83C19.518 44.8314 19.8494 44.6414 20.029 44.3317C20.2086 44.0221 20.209 43.64 20.03 43.33L17.45 38.87L30 28.52L30.41 29.23C30.6861 29.7105 31.2995 29.8761 31.78 29.6C32.2605 29.3239 32.4261 28.7105 32.15 28.23L31.15 26.5C31.0017 26.2464 30.7493 26.0709 30.46 26.02C30.1691 25.9652 29.8688 26.0421 29.64 26.23L15.64 37.77L11.38 40.23C9.80777 41.1458 9.05166 43.0073 9.54001 44.76L8.54001 45.33C7.48627 45.9351 6.90162 47.1161 7.05935 48.321C7.21707 49.5258 8.08601 50.5165 9.26001 50.83C9.51449 50.8974 9.77674 50.931 10.04 50.93C10.5661 50.9278 11.0827 50.7901 11.54 50.53L12.54 49.96C13.0204 50.4562 13.6245 50.8153 14.29 51C14.6317 51.0956 14.9852 51.1427 15.34 51.14C16.0429 51.1416 16.7334 50.9552 17.34 50.6L18.21 50.1L20.21 53.57C21.0375 55.0007 22.8664 55.4926 24.3 54.67C24.9899 54.2725 25.4935 53.617 25.6998 52.848C25.9061 52.079 25.7983 51.2595 25.4 50.57L23.58 47.4L38.58 41.77C38.8553 41.6665 39.0712 41.447 39.17 41.17C39.2685 40.8963 39.2429 40.5933 39.1 40.34L34.12 31.7ZM10.5 48.79C10.27 48.923 9.99656 48.9589 9.74001 48.89C9.4838 48.8234 9.26444 48.658 9.13001 48.43C8.99704 48.2 8.96106 47.9266 9.03001 47.67C9.09896 47.4121 9.26819 47.1924 9.50001 47.06L10.37 46.56L11.37 48.29L10.5 48.79ZM23.66 51.59C23.793 51.82 23.8289 52.0934 23.76 52.35C23.6887 52.6042 23.5197 52.8199 23.29 52.95C22.8146 53.2231 22.208 53.0625 21.93 52.59L19.93 49.12L21.59 48.17H21.67L23.66 51.59Z" fill="#868686"/>
</svg>
